svg/300/outlined/input-fill.svg

<svg xmlns="http://www.w3.org/2000/svg" width="48" height="48" viewBox="0 -960 960 960"><path d="M157.694-180.001q-23.529 0-40.611-17.082-17.082-17.082-17.082-40.611v-138.228h45.384v138.228q0 4.616 3.846 8.463 3.847 3.846 8.463 3.846h644.612q4.616 0 8.463-3.846 3.846-3.847 3.846-8.463v-484.612q0-4.616-3.846-8.463-3.847-3.846-8.463-3.846H157.694q-4.616 0-8.463 3.846-3.846 3.847-3.846 8.463v139.459h-45.384v-139.459q0-23.529 17.082-40.611 17.082-17.082 40.611-17.082h644.612q23.529 0 40.611 17.082 17.082 17.082 17.082 40.611v484.612q0 23.529-17.082 40.611-17.082 17.082-40.611 17.082H157.694Zm309.384-143.77-32.615-32.23L534.77-456.693H100.001v-45.383H534.77L434.463-602.384l32.615-32.615 155.613 155.614-155.613 155.614Z"/></svg>

<svg xmlns="http://www.w3.org/2000/svg" width="48" height="48" viewBox="0 -960 960 960"><path d="M157.69-180q-23.53 0-40.61-17.08T100-237.69v-138.23h45.39v138.23q0 4.61 3.84 8.46 3.85 3.84 8.46 3.84h644.62q4.61 0 8.46-3.84 3.84-3.85 3.84-8.46v-484.62q0-4.61-3.84-8.46-3.85-3.84-8.46-3.84H157.69q-4.61 0-8.46 3.84-3.84 3.85-3.84 8.46v139.46H100v-139.46q0-23.53 17.08-40.61T157.69-780h644.62q23.53 0 40.61 17.08T860-722.31v484.62q0 23.53-17.08 40.61T802.31-180H157.69Zm309.39-143.77L434.46-356l100.31-100.69H100v-45.39h434.77l-100.31-100.3L467.08-635l155.61 155.62-155.61 155.61Z"/></svg>
